X:1
L:1/8
Q:1/8=80
M:4/4
K:C
""^slow"" G2 c>B c2 ^F>G | B2 A>F A2 G2 | E2 F>G A3 A | A2 d>c Bc/B/A^G |""^5"" G2 c>B c2 ^F>G | 
 B2 A>F A2 G2 | E2 F>G A2 B>c | d2 AB c4 ||""^9"" E2 c>B A2 ^D>E | F2 E>D D2 C2 | B,2 B>A G2 ^F>E | 
 G2 ^F>F E3 z |""^13"" E2 c>B A2 ^D>E | F2 E>^G B2 A2 | c2 A>^F d2 BG | D^DE^F G3 F |]
